svg/fluentui-system-icons/ic_fluent_panel_bottom_20_filled.svg

<svg width="20" height="20" viewBox="0 0 20 20" fill="none" xmlns="http://www.w3.org/2000/svg">
<path d="M2 6C2 4.34315 3.34315 3 5 3H15C16.6569 3 18 4.34315 18 6V13C18 14.6569 16.6569 16 15 16H5C3.34315 16 2 14.6569 2 13V6ZM5 4C3.89543 4 3 4.89543 3 6V11H17V6C17 4.89543 16.1046 4 15 4H5Z" fill="#212121"/>
</svg>

<svg xmlns="http://www.w3.org/2000/svg" width="20" height="20"><path d="M2 6a3 3 0 0 1 3-3h10a3 3 0 0 1 3 3v7a3 3 0 0 1-3 3H5a3 3 0 0 1-3-3V6Zm3-2a2 2 0 0 0-2 2v5h14V6a2 2 0 0 0-2-2H5Z"/></svg>
